src/icons/svg/drag.svg

<?xml version="1.0" standalone="no"?><!DOCTYPE svg PUBLIC "-//W3C//DTD SVG 1.1//EN" "http://www.w3.org/Graphics/SVG/1.1/DTD/svg11.dtd"><svg t="1545641944801" class="icon" style="" viewBox="0 0 1024 1024" version="1.1" xmlns="http://www.w3.org/2000/svg" p-id="2009" xmlns:xlink="http://www.w3.org/1999/xlink" width="64" height="64"><defs><style type="text/css"></style></defs><path d="M458.147366 206.067121l107.577276 0 0 611.801762-107.577276 0 0-611.801762Z" p-id="2010"></path><path d="M339.946753 206.067121c-13.311168-13.311168-13.311168-34.813824 0-48.124992l148.022749-148.022749c13.311168-13.311168 34.813824-13.311168 48.124992 0l148.022749 148.022749c13.311168 13.311168 13.311168 34.813824 0 48.124992L339.946753 206.067121z" p-id="2011"></path><path d="M339.946753 817.868883c-13.311168 13.311168-13.311168 34.813824 0 48.124992l148.022749 148.022749c13.311168 13.311168 34.813824 13.311168 48.124992 0l148.022749-148.022749c13.311168-13.311168 13.311168-34.813824 0-48.124992L339.946753 817.868883z" p-id="2012"></path><path d="M817.868883 339.946753c13.311168-13.311168 34.813824-13.311168 48.124992 0l148.022749 148.022749c13.311168 13.311168 13.311168 34.813824 0 48.124992l-148.022749 148.022749c-13.311168 13.311168-34.813824 13.311168-48.124992 0L817.868883 339.946753z" p-id="2013"></path><path d="M206.067121 339.946753c-13.311168-13.311168-34.813824-13.311168-48.124992 0L9.983376 487.905506c-13.311168 13.311168-13.311168 34.813824 0 48.124992l148.022749 148.022749c13.311168 13.311168 34.813824 13.311168 48.124992 0L206.131117 339.946753z" p-id="2014"></path><path d="M206.067121 458.147366l611.801762 0 0 107.577276-611.801762 0 0-107.577276Z" p-id="2015"></path></svg>

<svg class="icon" viewBox="0 0 1024 1024" xmlns="http://www.w3.org/2000/svg" width="64" height="64"><defs><style/></defs><path d="M458.147 206.067h107.578V817.87H458.147V206.067z"/><path d="M339.947 206.067c-13.311-13.311-13.311-34.814 0-48.125L487.97 9.92c13.31-13.31 34.813-13.31 48.124 0l148.023 148.023c13.311 13.311 13.311 34.814 0 48.125h-344.17zM339.947 817.869c-13.311 13.311-13.311 34.814 0 48.125l148.023 148.023c13.31 13.31 34.813 13.31 48.124 0l148.023-148.023c13.311-13.311 13.311-34.814 0-48.125h-344.17zM817.869 339.947c13.311-13.311 34.814-13.311 48.125 0l148.023 148.023c13.31 13.31 13.31 34.813 0 48.124L865.994 684.117c-13.311 13.311-34.814 13.311-48.125 0v-344.17zM206.067 339.947c-13.311-13.311-34.814-13.311-48.125 0L9.983 487.906c-13.31 13.31-13.31 34.813 0 48.124l148.023 148.023c13.311 13.311 34.814 13.311 48.125 0V339.947z"/><path d="M206.067 458.147H817.87v107.578H206.067V458.147z"/></svg>
